flaticon/real-estate/house-key.svg

<svg xmlns="http://www.w3.org/2000/svg" width="32" height="32" viewBox="0 0 24 24">
    <path d="M 22.425781 14.675781 L 16.167969 8.417969 C 16.636719 7.597656 16.875 6.675781 16.875 5.753906 C 16.875 2.816406 14.453125 0.398438 11.519531 0.398438 C 10.8125 0.398438 10.140625 0.523438 9.5 0.800781 C 8.664062 0.292969 7.683594 0 6.636719 0 C 3.585938 0 1.085938 2.5 1.085938 5.554688 C 1.085938 7.597656 2.203125 9.394531 3.863281 10.359375 L 3.863281 21.621094 C 3.863281 21.738281 3.902344 21.859375 4.019531 21.9375 L 6.402344 23.921875 C 6.441406 23.960938 6.558594 24 6.636719 24 C 6.71875 24 6.835938 23.960938 6.835938 23.921875 L 9.21875 21.9375 C 9.335938 21.859375 9.375 21.738281 9.375 21.621094 L 9.375 20.828125 C 9.375 20.707031 9.335938 20.628906 9.257812 20.546875 L 7.949219 19.238281 L 9.058594 18.128906 C 9.21875 17.96875 9.21875 17.730469 9.058594 17.574219 L 7.949219 16.460938 L 8.265625 16.144531 L 14.613281 22.53125 C 14.929688 22.808594 15.285156 22.96875 15.683594 23.007812 C 15.683594 23.007812 15.722656 23.007812 15.761719 23.007812 C 16.160156 23.007812 16.515625 22.890625 16.753906 22.613281 L 22.507812 16.820312 C 23.101562 16.265625 23.023438 15.273438 22.425781 14.675781 Z M 11.519531 1.191406 C 14.015625 1.191406 16.078125 3.253906 16.078125 5.753906 C 16.078125 6.472656 15.90625 7.195312 15.578125 7.839844 C 15.105469 7.441406 14.535156 7.199219 13.9375 7.101562 L 12.058594 6.816406 C 12.152344 6.394531 12.191406 5.972656 12.191406 5.554688 C 12.191406 3.890625 11.449219 2.390625 10.28125 1.371094 C 10.683594 1.253906 11.09375 1.191406 11.519531 1.191406 Z M 1.878906 5.554688 C 1.878906 2.933594 4.019531 0.792969 6.636719 0.792969 C 9.257812 0.792969 11.398438 2.9375 11.398438 5.554688 C 11.398438 5.933594 11.363281 6.3125 11.253906 6.695312 L 8.703125 6.308594 C 8.140625 6.246094 7.601562 6.355469 7.167969 6.636719 C 7.105469 6.335938 7.074219 6.027344 7.074219 5.710938 C 7.074219 5.640625 7.074219 5.566406 7.074219 5.492188 C 7.738281 5.300781 8.226562 4.6875 8.226562 3.96875 C 8.226562 3.09375 7.511719 2.378906 6.636719 2.378906 C 5.765625 2.378906 5.050781 3.09375 5.050781 3.96875 C 5.050781 4.707031 5.5625 5.332031 6.25 5.503906 C 6.242188 5.585938 6.242188 5.660156 6.242188 5.753906 C 6.242188 6.308594 6.324219 6.851562 6.484375 7.367188 C 6.308594 7.675781 6.214844 8.027344 6.210938 8.402344 C 6.210938 8.535156 6.21875 8.667969 6.242188 8.804688 L 6.390625 9.75 L 6.476562 10.3125 C 3.9375 10.234375 1.878906 8.132812 1.878906 5.554688 Z M 7.433594 3.96875 C 7.433594 4.1875 7.34375 4.386719 7.195312 4.527344 C 7.253906 4.296875 7.328125 4.070312 7.421875 3.855469 C 7.429688 3.890625 7.433594 3.929688 7.433594 3.96875 Z M 6.367188 4.710938 C 6.0625 4.601562 5.84375 4.308594 5.84375 3.96875 C 5.84375 3.53125 6.203125 3.171875 6.640625 3.171875 C 6.71875 3.171875 6.800781 3.1875 6.875 3.210938 C 6.636719 3.683594 6.46875 4.1875 6.367188 4.710938 Z M 8.265625 17.851562 L 7.15625 18.960938 C 6.996094 19.121094 6.996094 19.359375 7.15625 19.515625 L 8.621094 20.984375 L 8.621094 21.421875 L 6.636719 23.085938 L 4.65625 21.421875 L 4.695312 21.421875 L 4.695312 10.949219 C 4.933594 11.042969 5.1875 11.121094 5.449219 11.179688 L 5.449219 20.707031 C 5.449219 20.945312 5.605469 21.105469 5.84375 21.105469 C 6.082031 21.105469 6.242188 20.90625 6.242188 20.707031 L 6.242188 11.292969 C 6.371094 11.300781 6.5 11.304688 6.625 11.304688 L 7.035156 14.003906 C 7.046875 14.066406 7.058594 14.132812 7.074219 14.195312 L 7.074219 14.203125 C 7.15625 14.71875 7.351562 15.234375 7.671875 15.667969 L 7.15625 16.183594 C 6.996094 16.34375 6.996094 16.582031 7.15625 16.742188 Z M 21.949219 16.265625 L 16.199219 22.015625 C 16.078125 22.136719 15.921875 22.175781 15.722656 22.175781 C 15.523438 22.175781 15.328125 22.097656 15.167969 21.9375 L 8.582031 15.351562 C 8.1875 14.957031 7.90625 14.441406 7.828125 13.882812 L 7.347656 10.71875 C 7.351562 10.675781 7.351562 10.632812 7.351562 10.589844 L 7.078125 8.683594 C 7.554688 9.445312 8.214844 10.09375 9.027344 10.5625 C 9.019531 10.613281 9.019531 10.660156 9.019531 10.710938 C 9.019531 11.582031 9.734375 12.296875 10.605469 12.296875 C 11.476562 12.296875 12.191406 11.582031 12.191406 10.710938 C 12.191406 9.839844 11.476562 9.125 10.605469 9.125 C 10.089844 9.125 9.632812 9.371094 9.339844 9.753906 C 8.464844 9.207031 7.800781 8.417969 7.425781 7.503906 C 7.429688 7.5 7.429688 7.5 7.433594 7.496094 C 7.527344 7.402344 7.644531 7.320312 7.773438 7.257812 C 7.949219 7.179688 8.140625 7.140625 8.34375 7.140625 C 8.421875 7.140625 8.503906 7.140625 8.542969 7.140625 L 9.050781 7.21875 L 11.476562 7.617188 C 11.523438 7.617188 11.5625 7.613281 11.601562 7.605469 L 13.777344 7.933594 C 14.335938 8.011719 14.851562 8.289062 15.246094 8.6875 L 21.871094 15.273438 C 22.148438 15.550781 22.1875 16.027344 21.949219 16.265625 Z M 11.167969 11.269531 C 11.023438 11.414062 10.824219 11.503906 10.605469 11.503906 C 10.253906 11.503906 9.953125 11.269531 9.847656 10.949219 C 10.273438 11.105469 10.71875 11.214844 11.167969 11.269531 Z M 10.070312 10.125 C 10.210938 9.996094 10.398438 9.917969 10.605469 9.917969 C 10.949219 9.917969 11.242188 10.140625 11.351562 10.449219 C 10.917969 10.402344 10.492188 10.296875 10.070312 10.125 Z M 10.070312 10.125"/>
    <path d="M18.023438 17.175781L15.484375 19.714844C15.328125 19.875 15.328125 20.113281 15.484375 20.269531 15.5625 20.351562 15.644531 20.390625 15.761719 20.390625 15.882812 20.390625 15.960938 20.351562 16.039062 20.269531L18.578125 17.730469C18.738281 17.574219 18.738281 17.335938 18.578125 17.175781 18.421875 17.019531 18.183594 17.019531 18.023438 17.175781zM16.515625 17.175781C16.359375 17.019531 16.121094 17.019531 15.960938 17.175781L14.292969 18.84375C14.136719 19 14.136719 19.238281 14.292969 19.398438 14.375 19.476562 14.453125 19.515625 14.574219 19.515625 14.691406 19.515625 14.769531 19.476562 14.851562 19.4375L16.515625 17.730469C16.675781 17.574219 16.675781 17.335938 16.515625 17.175781zM16.199219 15.195312C16.039062 15.035156 15.800781 15.035156 15.644531 15.195312L13.105469 17.730469C12.945312 17.890625 12.945312 18.128906 13.105469 18.289062 13.183594 18.367188 13.261719 18.40625 13.382812 18.40625 13.5 18.40625 13.582031 18.367188 13.660156 18.289062L16.199219 15.75C16.359375 15.589844 16.359375 15.351562 16.199219 15.195312zM16.199219 15.195312"/>
</svg>

<svg xmlns="http://www.w3.org/2000/svg" width="32" height="32" viewBox="0 0 24 24">
    <path d="M22.426 14.676l-6.258-6.258c.469-.82.707-1.742.707-2.664 0-2.938-2.422-5.356-5.355-5.356-.707 0-1.38.125-2.02.403A5.499 5.499 0 0 0 6.637 0C3.586 0 1.086 2.5 1.086 5.555a5.563 5.563 0 0 0 2.777 4.804v11.262c0 .117.04.238.157.317l2.382 1.984c.04.039.157.078.235.078.082 0 .199-.04.199-.078l2.383-1.985a.362.362 0 0 0 .156-.316v-.793c0-.121-.04-.2-.117-.281l-1.309-1.309 1.11-1.11a.38.38 0 0 0 0-.554l-1.11-1.113.317-.316 6.347 6.386a1.87 1.87 0 0 0 1.07.477h.079c.398 0 .754-.117.992-.395l5.754-5.793c.594-.554.515-1.547-.082-2.144zM11.52 1.19c2.496 0 4.558 2.063 4.558 4.563 0 .719-.172 1.441-.5 2.086a3.375 3.375 0 0 0-1.64-.738l-1.88-.286c.094-.421.133-.843.133-1.261a5.548 5.548 0 0 0-1.91-4.184c.403-.117.813-.18 1.239-.18zM1.879 5.555c0-2.621 2.14-4.762 4.758-4.762a4.775 4.775 0 0 1 4.761 4.762 4.1 4.1 0 0 1-.144 1.14l-2.55-.386c-.563-.063-1.102.046-1.536.328-.063-.301-.094-.61-.094-.926v-.219A1.594 1.594 0 0 0 8.227 3.97c0-.875-.715-1.59-1.59-1.59-.871 0-1.586.715-1.586 1.59 0 .738.511 1.363 1.199 1.535-.008.082-.008.156-.008.25 0 .555.082 1.098.242 1.613a2.12 2.12 0 0 0-.273 1.035c0 .133.008.266.031.403l.149.945.086.563c-2.54-.079-4.598-2.18-4.598-4.758zm5.555-1.586c0 .219-.09.418-.239.558.059-.23.133-.457.227-.672a.53.53 0 0 1 .012.114zm-1.067.742a.792.792 0 0 1-.523-.742.8.8 0 0 1 .797-.797c.078 0 .16.015.234.039a5.762 5.762 0 0 0-.508 1.5zm1.899 13.14l-1.11 1.11a.38.38 0 0 0 0 .555l1.465 1.468v.438l-1.984 1.664-1.98-1.664h.038V10.949c.239.094.492.172.754.23v9.528c0 .238.156.398.395.398a.4.4 0 0 0 .398-.398v-9.414c.13.008.258.012.383.012l.41 2.699c.012.062.024.129.04.191v.008c.081.516.277 1.031.597 1.465l-.516.516a.385.385 0 0 0 0 .558zm13.683-1.585l-5.75 5.75c-.12.12-.277.16-.476.16a.777.777 0 0 1-.555-.238l-6.586-6.586a2.616 2.616 0 0 1-.754-1.47l-.48-3.163c.004-.043.004-.086.004-.13l-.274-1.905a5.585 5.585 0 0 0 1.95 1.879c-.008.05-.008.097-.008.148 0 .871.714 1.586 1.585 1.586.872 0 1.586-.715 1.586-1.586 0-.871-.714-1.586-1.586-1.586a1.59 1.59 0 0 0-1.265.629 4.816 4.816 0 0 1-1.914-2.25l.008-.008c.093-.094.21-.176.34-.238.175-.078.367-.117.57-.117h.199l.508.078 2.426.398a.618.618 0 0 0 .125-.012l2.175.329a2.592 2.592 0 0 1 1.47.753l6.624 6.586c.277.278.317.754.078.993zM11.168 11.27a.794.794 0 0 1-.563.234.804.804 0 0 1-.757-.555c.425.156.87.266 1.32.32zm-1.098-1.145a.795.795 0 0 1 1.281.324 4.716 4.716 0 0 1-1.28-.324zm0 0"/>
    <path d="M18.023 17.176l-2.539 2.539a.387.387 0 0 0 0 .555c.079.082.16.12.278.12.12 0 .199-.038.277-.12l2.54-2.54a.38.38 0 0 0 0-.554.387.387 0 0 0-.556 0zm0 0M16.516 17.176a.387.387 0 0 0-.555 0l-1.668 1.668a.387.387 0 0 0 0 .554c.082.079.16.118.281.118.117 0 .196-.04.278-.078l1.664-1.708a.38.38 0 0 0 0-.554zm0 0M16.2 15.195a.38.38 0 0 0-.555 0l-2.54 2.535a.385.385 0 0 0 0 .56.357.357 0 0 0 .278.116c.117 0 .199-.039.277-.117l2.54-2.539a.38.38 0 0 0 0-.555zm0 0"/>
</svg>
